public/icons/comprehensive.svg

<svg width="56" height="56" viewBox="0 0 56 56" fill="none" xmlns="http://www.w3.org/2000/svg">
<rect width="56" height="56" rx="28" fill="#E8F1FC"/>
<path d="M28.2847 23.2H34.0014C35.6582 23.2 37 24.5431 37 26.2V28.0186C36.1845 27.9276 35.3352 28.1697 34.6736 28.7578C34.4265 28.9774 34.2243 29.2286 34.0677 29.5H33C31.3431 29.5 30 30.8431 30 32.5C30 33.2684 30.2889 33.9693 30.7639 34.5L30.7578 34.5069C30.3712 34.9418 30.1326 35.461 30.0418 36H22C20.3431 36 19 34.6569 19 33V22.5669C19 21.1492 20.1492 20 21.5669 20H24.1144C24.8329 20 25.9362 21.1779 26.7625 22.06C27.0614 22.3791 27.324 22.6595 27.5191 22.8314C27.6586 22.9544 28.0987 23.2 28.2847 23.2Z" fill="#093160"/>
<path d="M38.7474 33.1644L37.4141 34.6644C37.0472 35.0771 36.4151 35.1143 36.0023 34.7474C35.6412 34.4264 35.5675 33.9025 35.8004 33.5H33C32.4477 33.5 32 33.0523 32 32.5C32 31.9477 32.4477 31.5 33 31.5H35.8004C35.5675 31.0975 35.6412 30.5736 36.0023 30.2526C36.4151 29.8857 37.0472 29.9229 37.4141 30.3356L38.7474 31.8356C39.0842 32.2145 39.0842 32.7855 38.7474 33.1644Z" fill="#093160"/>
<path d="M32.2526 37.1644C31.9158 36.7855 31.9158 36.2145 32.2526 35.8356L33.5859 34.3356C33.9528 33.9229 34.5849 33.8857 34.9977 34.2526C35.3588 34.5736 35.4325 35.0975 35.1996 35.5H38C38.5523 35.5 39 35.9477 39 36.5C39 37.0523 38.5523 37.5 38 37.5H35.1996C35.4325 37.9025 35.3588 38.4264 34.9977 38.7474C34.5849 39.1143 33.9528 39.0771 33.5859 38.6644L32.2526 37.1644Z" fill="#093160"/>
</svg>

<svg xmlns="http://www.w3.org/2000/svg" width="56" height="56" fill="none"><rect width="56" height="56" fill="#E8F1FC" rx="28"/><path fill="#093160" d="M28.285 23.2H34a3 3 0 0 1 2.999 3v1.819a2.99 2.99 0 0 0-2.932 1.481H33a3 3 0 0 0-2.236 5l-.006.007A3 3 0 0 0 30.042 36H22a3 3 0 0 1-3-3V22.567A2.567 2.567 0 0 1 21.567 20h2.547c.719 0 1.822 1.178 2.648 2.06.3.32.562.6.757.771.14.123.58.369.766.369"/><path fill="#093160" d="m38.747 33.164-1.333 1.5A1 1 0 0 1 35.8 33.5H33a1 1 0 1 1 0-2h2.8a1 1 0 0 1 1.614-1.164l1.333 1.5a1 1 0 0 1 0 1.328"/><path fill="#093160" d="M32.253 37.164a1 1 0 0 1 0-1.328l1.333-1.5A1 1 0 0 1 35.2 35.5H38a1 1 0 1 1 0 2h-2.8a1 1 0 0 1-1.614 1.164z"/></svg>
